source/img/about-us/icon-loupe.svg

<svg width="48" height="48" viewBox="0 0 48 48" fill="none" xmlns="http://www.w3.org/2000/svg">
<g clip-path="url(#clip0)">
<path d="M31.6743 31.4043L29.5799 29.31L31.6996 26.771L33.3751 28.4464L35.0598 28.4371L45.5293 39.3297L41.2945 43.5646L30.825 32.672L31.6743 31.4043Z" fill="#C43B55"/>
<path fill-rule="evenodd" clip-rule="evenodd" d="M19.638 5.31698C13.2916 5.37874 8.11094 10.5896 8.06659 16.9559C8.02225 23.3221 13.131 28.4328 19.4774 28.3711C25.8238 28.3093 31.0045 23.0984 31.0488 16.7322C31.0644 14.49 30.4415 12.4056 29.3512 10.6471C29.133 10.2953 29.2434 9.82793 29.5979 9.60318C29.9523 9.37843 30.4164 9.48144 30.6346 9.83326C31.8687 11.8236 32.5735 14.1837 32.5559 16.7175C32.5057 23.9187 26.6456 29.813 19.4669 29.8828C12.2882 29.9527 6.5094 24.1717 6.55956 16.9705C6.60973 9.7694 12.4699 3.8751 19.6485 3.80524C22.3379 3.77907 24.8328 4.57485 26.8972 5.9593C27.2405 6.18952 27.3281 6.65847 27.0928 7.00673C26.8576 7.35499 26.3886 7.45068 26.0453 7.22046C24.221 5.99703 22.0175 5.29383 19.638 5.31698Z" fill="black"/>
<path fill-rule="evenodd" clip-rule="evenodd" d="M19.4553 31.3958C27.4663 31.3179 34.0058 24.7403 34.0617 16.7042C34.1176 8.66819 27.6687 2.21683 19.6577 2.2947C11.6467 2.37257 5.10723 8.95019 5.05134 16.9862C5.03166 19.8163 5.81799 22.4477 7.19451 24.6675C7.41267 25.0194 7.30222 25.4867 6.94783 25.7115C6.59342 25.9362 6.12927 25.8332 5.91111 25.4814C4.3908 23.0297 3.5226 20.1225 3.54431 17.0009C3.606 8.12993 10.8249 0.868918 19.6682 0.782956C28.5115 0.696995 35.6304 7.81863 35.5687 16.6896C35.507 25.5605 28.2881 32.8215 19.4448 32.9075C16.1316 32.9397 13.0584 31.9594 10.5153 30.2539C10.1721 30.0237 10.0845 29.5548 10.3197 29.2065C10.555 28.8583 11.024 28.7626 11.3673 28.9928C13.6702 30.5372 16.4519 31.4249 19.4553 31.3958Z" fill="black"/>
<path fill-rule="evenodd" clip-rule="evenodd" d="M31.5926 25.8229L33.8308 28.0681L34.3911 27.9831C35.2141 27.8582 36.0411 28.1285 36.6234 28.7126L45.3413 37.4579C45.9234 38.0418 46.1928 38.8712 46.0686 39.6965L46.0216 40.0087C45.9362 40.576 45.6701 41.1034 45.2632 41.5115L43.741 43.0385C43.3341 43.4466 42.8085 43.7136 42.2429 43.7993L41.9317 43.8464C41.109 43.971 40.2822 43.7007 39.7001 43.1168L30.982 34.3713C30.3999 33.7873 30.1305 32.958 30.2547 32.1326L30.3393 31.5709L28.1009 29.3264L31.5926 25.8229ZM31.8482 31.6472L31.7448 32.334C31.6916 32.6877 31.8071 33.0431 32.0565 33.2934L40.7746 42.0389C41.0241 42.2892 41.3784 42.405 41.731 42.3516L42.0422 42.3045C42.2846 42.2678 42.5099 42.1534 42.6843 41.9784L44.2065 40.4514C44.3808 40.2765 44.4949 40.0505 44.5315 39.8074L44.5785 39.4952C44.6317 39.1415 44.5162 38.7861 44.2668 38.5358L35.5489 29.7905C35.2993 29.5401 34.9449 29.4243 34.5922 29.4778L33.9072 29.5818L31.8482 31.6472ZM32.4922 28.8811L31.575 27.9609L30.2322 29.3082L31.1495 30.228L32.4922 28.8811Z" fill="black"/>
<path d="M19.123 16.4485L11.4473 12.9176C12.2902 11.0887 13.7633 9.61548 15.5922 8.77264L19.123 16.4485Z" fill="#053866"/>
<path d="M20.2308 15.8936L16.6999 8.21772C17.7755 7.72198 18.9687 7.43781 20.2308 7.43781C21.4929 7.43781 22.686 7.72198 23.7617 8.21772L20.2308 15.8936Z" fill="#B4D1FA"/>
<path d="M12.5559 14.5821L20.2316 18.113H20.2317H20.2318L23.7626 10.4372C25.5916 11.2801 27.0647 12.7533 27.9076 14.5821C28.4032 15.6577 28.6875 16.8509 28.6875 18.1131C28.6875 19.3752 28.4033 20.5683 27.9076 21.644C27.0647 23.4728 25.5915 24.9461 23.7626 25.789C22.687 26.2848 21.4938 26.569 20.2317 26.569C18.9696 26.569 17.7765 26.2848 16.7008 25.789C14.8719 24.9461 13.3986 23.4728 12.5559 21.644C12.0601 20.5684 11.776 19.3753 11.776 18.1132C11.7759 16.8509 12.0601 15.6577 12.5559 14.5821Z" fill="#B23C4F"/>
</g>
<defs>
<clipPath id="clip0">
<rect width="48" height="48" fill="white"/>
</clipPath>
</defs>
</svg>

<svg width="48" height="48" fill="none" xmlns="http://www.w3.org/2000/svg"><g clip-path="url(#clip0)"><path d="M31.674 31.404L29.58 29.31l2.12-2.539 1.675 1.675 1.685-.009L45.53 39.33l-4.236 4.235-10.469-10.893.85-1.268z" fill="#C43B55"/><path fill-rule="evenodd" clip-rule="evenodd" d="M19.638 5.317c-6.346.062-11.527 5.273-11.571 11.639-.045 6.366 5.064 11.477 11.41 11.415 6.347-.062 11.527-5.273 11.572-11.639a11.35 11.35 0 00-1.698-6.085.764.764 0 01.247-1.044.746.746 0 011.037.23 12.846 12.846 0 011.92 6.885c-.05 7.2-5.91 13.095-13.088 13.165-7.179.07-12.958-5.711-12.907-12.912.05-7.202 5.91-13.096 13.088-13.166 2.69-.026 5.185.77 7.25 2.154.343.23.43.7.195 1.048a.758.758 0 01-1.048.213 11.256 11.256 0 00-6.407-1.903z" fill="#000"/><path fill-rule="evenodd" clip-rule="evenodd" d="M19.455 31.396c8.011-.078 14.55-6.656 14.607-14.692.056-8.036-6.393-14.487-14.404-14.41-8.011.079-14.55 6.656-14.607 14.692-.02 2.83.767 5.462 2.144 7.681a.764.764 0 01-.247 1.044.746.746 0 01-1.037-.23 15.823 15.823 0 01-2.367-8.48C3.606 8.13 10.824.869 19.668.783c8.844-.086 15.962 7.036 15.9 15.907-.061 8.87-7.28 16.131-16.123 16.217a15.692 15.692 0 01-8.93-2.653.752.752 0 01-.195-1.048.758.758 0 011.047-.213 14.21 14.21 0 008.088 2.403z" fill="#000"/><path fill-rule="evenodd" clip-rule="evenodd" d="M31.593 25.823l2.238 2.245.56-.085a2.596 2.596 0 012.232.73l8.718 8.745c.582.584.852 1.413.728 2.239l-.047.312a2.7 2.7 0 01-.759 1.502l-1.522 1.527a2.686 2.686 0 01-1.498.761l-.311.047a2.596 2.596 0 01-2.232-.73l-8.718-8.745a2.615 2.615 0 01-.727-2.238l.084-.562-2.238-2.245 3.492-3.503zm.255 5.824l-.103.687c-.053.354.062.71.311.96l8.719 8.745c.25.25.603.366.956.313l.311-.047a1.15 1.15 0 00.642-.327l1.523-1.527c.174-.175.288-.4.325-.644l.047-.312a1.12 1.12 0 00-.312-.96l-8.718-8.744a1.112 1.112 0 00-.957-.313l-.685.104-2.059 2.065zm.644-2.766l-.917-.92-1.343 1.347.918.92 1.342-1.347z" fill="#000"/><path d="M19.123 16.448l-7.676-3.53a8.475 8.475 0 014.145-4.145l3.531 7.675z" fill="#053866"/><path d="M20.23 15.894L16.7 8.218a8.41 8.41 0 013.53-.78 8.41 8.41 0 013.532.78l-3.531 7.676z" fill="#B4D1FA"/><path d="M12.556 14.582l7.676 3.531 3.53-7.676a8.475 8.475 0 014.925 7.676 8.476 8.476 0 01-8.456 8.456 8.475 8.475 0 01-8.456-8.456c0-1.262.285-2.455.78-3.53z" fill="#B23C4F"/></g><defs><clipPath id="clip0"><path fill="#fff" d="M0 0h48v48H0z"/></clipPath></defs></svg>
